X:1
T: Miss Agnes Ross's Reel
C:William Marshall
R:Reel
Q: 232
K:D
M:4/4
L:1/8
|:F|DA FA DA FA|E=c cG E2 =CE|DA FA DA FA|Ed dA F2 EF|
DA FA DA FA|E=c cG E2 =CE|DA FA DA FA|Ed dA F2 Ef|
df df df Af|=cd ef g2 a1/2g1/2f1/2e1/2|df df df Af|de fg a2 b1/2a1/2g1/2f1/2|
df df df Af|=cd ef g2 a1/2g1/2f1/2e1/2|af ge fd ec|dA BG F2 E:|
